X: 2159
T: Şehnâzbûselik Aranağme (Semâî)
C: ?
O: Turkey
F: http://compmusic.upf.edu/node/140
N: sehnazbuselik--aranagme--semai--1--
N: makam= sehnazbuselik
N: form= aranagme
N: usul= semai = 3/4
M: 3/4
L: 1/16
K: C    
Q: 1/4=132
%%MIDI tuningsystem comma53
a12  | e12  | d2f2 e2d2 c2d2  | e2d2 c2B2 A2^G2  | \
w:  ARANAĞME  |   |   |   | 
A4 c4 e4  | f4 ^g4 a4  | a2c'2 b2a2 ^g2f2  | 
w:   |   |   | 
e12  | d4 (3a2g2^f2 g4  | c4 (3g2f2e2 f4  | \
w:   |   |   | 
B4 (3f2e2d2 e4  | c4 B4 A4  | a2g2 f2e2 d2e2  | 
w:   |   |   | 
f2e2 d2c2 B2c2  | e2d2 c2B2 A2^G2  | A12  | a12  | e12  | \
w:   |   |   |  ARANAĞME  |   | 
d2f2 e2d2 c2d2  | 
w:   | 
e2d2 c2B2 A2^G2  | A4 c4 e4  | f4 ^g4 a4  | \
w:   |   |   | 
a2c'2 b2a2 ^g2f2  | e12  | d4 (3a2g2^f2 g4  | 
w:   |   |   | 
c4 (3g2f2e2 f4  | B4 (3f2e2d2 e4  | c4 B4 A4  | \
w:   |   |   | 
a2g2 f2e2 d2e2  | f2e2 d2c2 B2c2  | 
w:   |   | 
e2d2 c2B2 A2^G2  | A12  | |


